img/brands/5.svg

<svg width="149" height="26" viewBox="0 0 149 26" fill="none" xmlns="http://www.w3.org/2000/svg">
<path fill-rule="evenodd" clip-rule="evenodd" d="M17.7291 23.9519C15.7656 22.7225 14.3196 18.4803 14.3196 13.4388C14.3196 13.2537 14.3196 13.0717 14.3247 12.8887C8.86532 12.0304 4.92101 9.68053 4.81932 6.90049L4.80305 6.93303C3.46794 8.59251 2.70531 10.5123 2.70531 12.5572C2.70531 18.5748 9.31477 23.5065 17.6905 23.9458L17.7261 23.9529L17.7291 23.9519ZM0.18457 12.9995C0.18457 6.26599 8.56434 0.80658 18.9015 0.80658C29.2387 0.80658 37.6195 6.26599 37.6195 12.9995C37.6195 19.733 29.2387 25.1934 18.9015 25.1934C8.56434 25.1934 0.18457 19.733 0.18457 12.9995ZM18.9015 2.56571C20.8976 2.56571 22.5947 5.59284 23.2241 9.81679V9.81069C27.1064 9.20058 29.8244 7.81158 29.8244 6.18972C29.8244 4.01267 24.9334 2.24947 18.8995 2.24947C12.8656 2.24947 7.97457 4.01267 7.97457 6.18972C7.97457 7.81158 10.6926 9.20567 14.5759 9.81069V9.81679C15.2053 5.59284 16.9024 2.56571 18.8975 2.56571H18.9015ZM20.1095 23.9447C28.4893 23.5095 35.0957 18.5779 35.0957 12.5562C35.0957 10.5113 34.3331 8.59048 32.9969 6.93202L32.9807 6.89948C32.879 9.67952 28.9357 12.0294 23.4763 12.8876C23.4763 13.0707 23.4824 13.2527 23.4824 13.4378C23.4824 18.4792 22.0354 22.7215 20.0739 23.9509L20.1075 23.9437L20.1095 23.9447ZM18.9015 10.131C19.7963 10.131 20.6647 10.0924 21.4965 10.0191C21.0826 7.31232 20.0729 5.40066 18.9025 5.40066C17.7322 5.40066 16.7235 7.31232 16.3086 10.0191C17.1404 10.0924 18.0098 10.131 18.9036 10.131H18.9015ZM18.9015 20.158C20.4044 20.158 21.6297 17.0313 21.6948 13.1093H21.7029C20.7979 13.1927 19.8604 13.2364 18.9015 13.2364C17.9426 13.2364 17.0061 13.1927 16.1001 13.1093H16.1083C16.1733 17.0313 17.3996 20.158 18.9015 20.158Z" fill="#8F90A6"/>
<path fill-rule="evenodd" clip-rule="evenodd" d="M95.6934 12.999C95.6932 11.1556 96.2396 9.35343 97.2637 7.82055C98.2877 6.28767 99.7434 5.0929 101.446 4.38734C103.15 3.68178 105.024 3.49712 106.832 3.85672C108.64 4.21631 110.301 5.10401 111.604 6.40755C112.908 7.71108 113.795 9.3719 114.155 11.18C114.515 12.988 114.33 14.8621 113.624 16.5652C112.919 18.2683 111.724 19.724 110.191 20.748C108.658 21.7721 106.856 22.3186 105.013 22.3184C102.541 22.3184 100.171 21.3365 98.4229 19.5888C96.6752 17.8411 95.6934 15.4707 95.6934 12.999ZM105.013 18.8967C107.887 18.8967 110.217 16.2529 110.217 12.999C110.217 9.74516 107.887 7.10138 105.013 7.10138C102.138 7.10138 99.8105 9.74516 99.8105 12.999C99.8105 16.2529 102.139 18.8967 105.013 18.8967Z" fill="#8F90A6"/>
<path fill-rule="evenodd" clip-rule="evenodd" d="M124.907 7.56185V21.8952H120.981V7.56185H120.994H115.502V4.3222H130.384V7.56185H124.92H124.907Z" fill="#8F90A6"/>
<path fill-rule="evenodd" clip-rule="evenodd" d="M135.135 17.9409L133.629 21.8913H129.043L136.293 4.3183H141.18L148.43 21.8913H143.844L142.337 17.9409H135.135ZM138.733 14.9748H141.202L138.75 8.54224H138.715L136.263 14.9738H138.733V14.9748Z" fill="#8F90A6"/>
<path fill-rule="evenodd" clip-rule="evenodd" d="M52.5258 7.56185V21.8952H48.5988V7.56185H48.613H43.1211V4.3222H58.0036V7.56185H52.5401H52.5258Z" fill="#8F90A6"/>
<path fill-rule="evenodd" clip-rule="evenodd" d="M59.0049 12.999C59.0047 11.1556 59.5511 9.35351 60.5751 7.82066C61.5992 6.2878 63.0547 5.09303 64.7578 4.38744C66.4608 3.68185 68.3349 3.49713 70.1429 3.85664C71.9509 4.21615 73.6118 5.10375 74.9153 6.40718C76.2189 7.71062 77.1067 9.37134 77.4664 11.1793C77.8261 12.9873 77.6416 14.8614 76.9362 16.5645C76.2308 18.2677 75.0362 19.7234 73.5034 20.7475C71.9707 21.7717 70.1687 22.3184 68.3252 22.3184C67.1013 22.3185 65.8894 22.0775 64.7586 21.6093C63.6278 21.141 62.6003 20.4546 61.7348 19.5892C60.8693 18.7238 60.1828 17.6964 59.7144 16.5656C59.246 15.4349 59.0049 14.223 59.0049 12.999ZM68.3252 18.8967C71.1988 18.8967 73.5294 16.2529 73.5294 12.999C73.5294 9.74516 71.1988 7.10138 68.3252 7.10138C65.4516 7.10138 63.121 9.74516 63.121 12.999C63.121 16.2529 65.4516 18.8967 68.3252 18.8967Z" fill="#8F90A6"/>
<path fill-rule="evenodd" clip-rule="evenodd" d="M86.6706 21.8952H88.6605V15.3051V15.2227L95.512 4.3222H90.926L86.6706 11.7085L82.4141 4.3222H77.8281L84.6796 15.2227V15.3051V21.8952H86.6706Z" fill="#8F90A6"/>
</svg>

<svg width="149" height="26" fill="none" xmlns="http://www.w3.org/2000/svg"><path fill-rule="evenodd" clip-rule="evenodd" d="M17.73 23.952c-1.964-1.23-3.41-5.472-3.41-10.513 0-.185 0-.367.005-.55C8.865 12.03 4.92 9.68 4.819 6.9l-.016.033c-1.335 1.66-2.098 3.58-2.098 5.624 0 6.018 6.61 10.95 14.985 11.389l.036.007.003-.001zM.184 12.999C.185 6.266 8.565.807 18.9.807 29.24.807 37.62 6.266 37.62 12.999c0 6.734-8.381 12.194-18.718 12.194C8.563 25.193.184 19.733.184 13zM18.9 2.566c1.997 0 3.694 3.027 4.323 7.25v-.005c3.882-.61 6.6-2 6.6-3.621 0-2.177-4.89-3.94-10.925-3.94-6.033 0-10.924 1.763-10.924 3.94 0 1.622 2.718 3.016 6.6 3.62v.007c.63-4.224 2.327-7.251 4.323-7.251h.003zm1.209 21.379c8.38-.436 14.986-5.367 14.986-11.389 0-2.045-.763-3.966-2.1-5.624l-.015-.033c-.102 2.78-4.045 5.13-9.505 5.989 0 .183.006.365.006.55 0 5.041-1.447 9.283-3.408 10.513l.034-.007h.002zM18.9 10.13c.895 0 1.764-.039 2.596-.112-.414-2.707-1.424-4.618-2.595-4.618-1.17 0-2.178 1.911-2.593 4.618.831.073 1.7.112 2.595.112H18.9zm0 10.027c1.503 0 2.729-3.127 2.794-7.049h.008c-.905.084-1.843.127-2.802.127-.958 0-1.895-.043-2.8-.127h.007c.065 3.922 1.292 7.049 2.793 7.049zM95.693 12.999a9.32 9.32 0 1 1 18.64-.002 9.32 9.32 0 0 1-18.64.002zm9.32 5.898c2.874 0 5.204-2.644 5.204-5.898 0-3.254-2.33-5.898-5.204-5.898-2.875 0-5.203 2.644-5.203 5.898 0 3.254 2.329 5.898 5.203 5.898zM124.907 7.562v14.333h-3.926V7.562h.013-5.492v-3.24h14.882v3.24h-5.477zM135.135 17.94l-1.506 3.951h-4.586l7.25-17.573h4.887l7.25 17.573h-4.586l-1.507-3.95h-7.202zm3.598-2.965h2.469l-2.452-6.433h-.035l-2.452 6.432h2.47zM52.526 7.562v14.333h-3.927V7.562h.014-5.492v-3.24h14.883v3.24H52.526zM59.005 12.999a9.32 9.32 0 1 1 18.64-.002 9.32 9.32 0 0 1-18.64.002zm9.32 5.898c2.874 0 5.204-2.644 5.204-5.898 0-3.254-2.33-5.898-5.204-5.898-2.873 0-5.204 2.644-5.204 5.898 0 3.254 2.33 5.898 5.204 5.898zM86.67 21.895h1.99v-6.672l6.852-10.9h-4.586l-4.255 7.386-4.257-7.387h-4.586l6.852 10.9v6.673h1.99z" fill="#8F90A6"/></svg>
